!!!OTL: Verschlafener Jaeger Es ging sich ein Jaeger ausjagen
!!!ARE: Europa, Mitteleuropa, Deutschland (BRD), Nordrhein - Westfalen, Solingen,
!!    Schlebusch
!!!YOR: 7, S. 215
!!    ????
!!!SCT: Q0152I
!!!YEM: Copyright 1995, estate of Helmut Schaffrath.
**kern
*ICvox
*Ivox
*M6/8
*k[f#]
*G:
{8d
=1
8.g
16a
8b
8a
8b
8a
=2
4g
8e
4d}
{8d
=3
8.g
16a
8b
8a
8b
8a
=4
4g
8e
4.d}
=5
{4.b
4.cc
=6
8dd
8b
8g
8a
8g
8a
=7
8.g
16a
8b
8a
8b
8dd}
=8
{4.b
4.cc
=9
8dd
8b
8g
8a
8g
8a
=10
[4.g
4g]}
==
!!!AGN: Ballade, Verfuehrung, Versagen, Spott
!!!ONB: ESAC (Essen Associative Code) Database: BALLADE
!!!AMT: compound duple
!!!AIN: vox
!!!EED: Helmut Schaffrath
!!!EEV: 1.0
*-
